;FLAVOR:Marlin
;TIME:793
;Filament used: 0.132449m
;Layer height: 0.12
;MINX:82.65
;MINY:84.567
;MINZ:0.12
;MAXX:152.353
;MAXY:150.433
;MAXZ:1.2
;Generated with Cura_SteamEngine 4.6.1
M140 S50
M105
M190 S50
M104 S200
M105
M109 S200
M82 ;absolute extrusion mode
; Ender 3 Custom Start G-code
G92 E0 ; Reset Extruder
G28 ; Home all axes
G1 Z2.0 F3000 ; Move Z Axis up little to prevent scratching of Heat Bed
G1 X0.1 Y20 Z0.3 F5000.0 ; Move to start position
G1 X0.1 Y200.0 Z0.3 F1500.0 E15 ; Draw the first line
G1 X0.4 Y200.0 Z0.3 F5000.0 ; Move to side a little
G1 X0.4 Y20 Z0.3 F1500.0 E30 ; Draw the second line
G92 E0 ; Reset Extruder
G1 Z2.0 F3000 ; Move Z Axis up little to prevent scratching of Heat Bed
G1 X5 Y20 Z0.3 F5000.0 ; Move over to prevent blob squish
G92 E0
G92 E0
G1 F2700 E-5
;LAYER_COUNT:10
;LAYER:0
M107
G0 F6000 X127.402 Y84.978 Z0.12
;TYPE:SKIRT
G1 F2700 E0
G1 F1200 X128.299 Y85.031 E0.00897
G1 X129.188 Y85.163 E0.01793
G1 X130.061 Y85.374 E0.0269
G1 X130.907 Y85.66 E0.03581
G1 X131.036 Y85.71 E0.03719
G1 X131.859 Y86.071 E0.04615
G1 X132.646 Y86.505 E0.05512
G1 X133.392 Y87.006 E0.06409
G1 X134.09 Y87.572 E0.07305
G1 X134.422 Y87.881 E0.07758
G1 X135.045 Y88.487 E0.08625
G1 X147.359 Y100.802 E0.26002
G1 X147.829 Y101.285 E0.26675
G1 X148.426 Y101.957 E0.27572
G1 X148.961 Y102.678 E0.28468
G1 X149.431 Y103.445 E0.29365
G1 X149.83 Y104.25 E0.30262
G1 X150.063 Y104.823 E0.30879
G1 X150.35 Y105.675 E0.31776
G1 X150.56 Y106.548 E0.32672
G1 X150.672 Y107.257 E0.33388
G1 X150.771 Y108.085 E0.3422
G1 X150.9 Y109.308 E0.35447
G1 X151.236 Y111.796 E0.37952
G1 X151.565 Y113.843 E0.40021
G1 X151.796 Y115.18 E0.41375
G1 X151.909 Y116.072 E0.42272
G1 X151.938 Y116.594 E0.42794
G1 X151.953 Y117.23 E0.43428
G1 X151.952 Y127.399 E0.53575
G1 X151.942 Y128.127 E0.54301
G1 X151.89 Y129.024 E0.55198
G1 X151.758 Y129.913 E0.56095
G1 X151.548 Y130.787 E0.56992
G1 X151.195 Y131.801 E0.58063
G1 X150.974 Y132.343 E0.58647
G1 X150.598 Y133.16 E0.59544
G1 X150.151 Y133.939 E0.60441
G1 X149.637 Y134.676 E0.61337
G1 X148.887 Y135.547 E0.62484
G1 X148.316 Y136.136 E0.63303
G1 X138.031 Y146.434 E0.77825
G1 X137.531 Y146.921 E0.78521
G1 X136.86 Y147.519 E0.79418
G1 X136.139 Y148.055 E0.80315
G1 X135.372 Y148.524 E0.81212
G1 X134.562 Y148.926 E0.82114
G1 X134.315 Y149.035 E0.82383
G1 X133.988 Y149.173 E0.82738
G1 X133.673 Y149.299 E0.83076
G1 X132.825 Y149.595 E0.83972
G1 X131.953 Y149.815 E0.8487
G1 X131.066 Y149.956 E0.85766
G1 X130.113 Y150.019 E0.86719
G1 X129.286 Y150.033 E0.87544
G1 X105.745 Y150.032 E1.11033
G1 X105.047 Y150.022 E1.1173
G1 X104.15 Y149.969 E1.12627
G1 X103.261 Y149.837 E1.13523
G1 X102.388 Y149.626 E1.14419
G1 X101.705 Y149.402 E1.15137
G1 X101.493 Y149.324 E1.15362
G1 X100.963 Y149.112 E1.15932
G1 X100.61 Y148.959 E1.16316
G1 X99.803 Y148.565 E1.17212
G1 X99.033 Y148.101 E1.18109
G1 X98.308 Y147.571 E1.19005
G1 X97.619 Y146.965 E1.1992
G1 X96.989 Y146.356 E1.20795
G1 X86.637 Y135.997 E1.35407
G1 X86.153 Y135.499 E1.361
G1 X85.556 Y134.828 E1.36996
G1 X85.021 Y134.105 E1.37894
G1 X84.552 Y133.339 E1.3879
G1 X84.111 Y132.436 E1.39793
G1 X83.932 Y132.018 E1.40247
G1 X83.693 Y131.408 E1.409
G1 X83.417 Y130.553 E1.41797
G1 X83.218 Y129.676 E1.42694
G1 X83.098 Y128.786 E1.4359
G1 X83.058 Y128.021 E1.44354
G1 X83.05 Y127.309 E1.45065
G1 X83.118 Y117.357 E1.54995
G1 X83.132 Y116.697 E1.55654
G1 X83.191 Y115.8 E1.56551
G1 X83.311 Y115.006 E1.57352
G1 X83.408 Y114.501 E1.57865
G1 X83.85 Y112.016 E1.60384
G1 X84.231 Y109.463 E1.62959
G1 X84.358 Y108.422 E1.64006
G1 X84.468 Y107.598 E1.64835
G1 X84.626 Y106.713 E1.65732
G1 X84.863 Y105.846 E1.66629
G1 X85.055 Y105.301 E1.67206
G1 X85.119 Y105.135 E1.67383
G1 X85.479 Y104.311 E1.6828
G1 X85.911 Y103.523 E1.69177
G1 X86.412 Y102.777 E1.70074
G1 X87.101 Y101.939 E1.71156
G1 X87.875 Y101.099 E1.72296
G1 X93.624 Y95.082 E1.806
G1 X94.402 Y94.286 E1.8171
G1 X100.272 Y88.403 E1.90003
G1 X100.775 Y87.911 E1.90705
G1 X101.444 Y87.312 E1.91601
G1 X102.165 Y86.774 E1.92498
G1 X102.93 Y86.303 E1.93395
G1 X103.832 Y85.859 E1.94398
G1 X103.957 Y85.805 E1.94534
G1 X104.797 Y85.486 E1.9543
G1 X105.662 Y85.242 E1.96327
G1 X106.545 Y85.077 E1.97223
G1 X107.633 Y84.982 E1.98313
G1 X108.442 Y84.967 E1.99121
G1 X126.704 Y84.968 E2.17342
G1 X127.402 Y84.978 E2.18039
G0 F6000 X127.405 Y84.778
G1 F1200 X128.311 Y84.831 E2.18945
G1 X129.208 Y84.964 E2.19849
G1 X130.091 Y85.175 E2.20755
G1 X130.979 Y85.473 E2.2169
G1 X131.108 Y85.523 E2.21828
G1 X131.939 Y85.888 E2.22734
G1 X132.735 Y86.325 E2.2364
G1 X133.489 Y86.83 E2.24545
G1 X134.196 Y87.399 E2.25451
G1 X134.561 Y87.737 E2.25947
G1 X135.186 Y88.346 E2.26818
G1 X147.502 Y100.663 E2.44198
G1 X147.972 Y101.146 E2.4487
G1 X148.576 Y101.823 E2.45775
G1 X149.117 Y102.552 E2.46681
G1 X149.593 Y103.325 E2.47587
G1 X149.998 Y104.137 E2.48492
G1 X150.25 Y104.751 E2.49155
G1 X150.54 Y105.611 E2.5006
G1 X150.753 Y106.493 E2.50966
G1 X150.87 Y107.232 E2.51712
G1 X150.97 Y108.064 E2.52548
G1 X151.097 Y109.259 E2.53747
G1 X151.441 Y111.815 E2.56321
G1 X151.762 Y113.809 E2.58336
G1 X151.993 Y115.146 E2.5969
G1 X152.108 Y116.047 E2.60596
G1 X152.138 Y116.588 E2.61137
G1 X152.153 Y117.23 E2.61778
G1 X152.152 Y127.401 E2.71926
G1 X152.142 Y128.129 E2.72653
G1 X152.09 Y129.035 E2.73558
G1 X151.958 Y129.933 E2.74464
G1 X151.747 Y130.816 E2.7537
G1 X151.381 Y131.877 E2.7649
G1 X151.16 Y132.419 E2.77074
G1 X150.78 Y133.243 E2.77979
G1 X150.33 Y134.031 E2.78885
G1 X149.812 Y134.776 E2.7979
G1 X149.03 Y135.686 E2.80987
G1 X148.458 Y136.277 E2.81808
G1 X138.171 Y146.577 E2.96333
G1 X137.671 Y147.064 E2.9703
G1 X136.993 Y147.668 E2.97936
G1 X136.265 Y148.21 E2.98841
G1 X135.493 Y148.686 E2.99746
G1 X134.642 Y149.109 E3.00694
G1 X134.395 Y149.218 E3.00964
G1 X134.062 Y149.358 E3.01324
G1 X133.747 Y149.484 E3.01663
G1 X132.891 Y149.784 E3.02568
G1 X132.011 Y150.007 E3.03474
G1 X131.115 Y150.152 E3.04379
G1 X130.116 Y150.219 E3.05378
G1 X129.286 Y150.233 E3.06207
G1 X105.742 Y150.232 E3.29699
G1 X105.044 Y150.222 E3.30395
G1 X104.138 Y150.169 E3.31301
G1 X103.241 Y150.036 E3.32206
G1 X102.358 Y149.825 E3.33112
G1 X101.635 Y149.589 E3.33871
G1 X101.423 Y149.511 E3.34096
G1 X100.884 Y149.295 E3.34675
G1 X100.531 Y149.142 E3.35059
G1 X99.715 Y148.745 E3.35965
G1 X98.937 Y148.278 E3.3687
G1 X98.203 Y147.744 E3.37776
G1 X97.48 Y147.109 E3.38736
G1 X96.848 Y146.497 E3.39614
G1 X86.494 Y136.137 E3.54229
G1 X86.01 Y135.639 E3.54922
G1 X85.406 Y134.961 E3.55828
G1 X84.865 Y134.232 E3.56733
G1 X84.39 Y133.459 E3.57639
G1 X83.928 Y132.515 E3.58687
G1 X83.749 Y132.097 E3.59141
G1 X83.505 Y131.478 E3.59805
G1 X83.226 Y130.614 E3.60711
G1 X83.024 Y129.73 E3.61616
G1 X82.901 Y128.83 E3.62522
G1 X82.858 Y128.024 E3.63327
G1 X82.85 Y127.308 E3.64042
G1 X82.918 Y117.353 E3.73975
G1 X82.932 Y116.693 E3.74634
G1 X82.992 Y115.787 E3.7554
G1 X83.115 Y114.968 E3.76366
G1 X83.201 Y114.518 E3.76823
G1 X83.659 Y111.95 E3.79426
G1 X84.032 Y109.449 E3.81949
G1 X84.16 Y108.395 E3.83009
G1 X84.27 Y107.571 E3.83838
G1 X84.429 Y106.678 E3.84743
G1 X84.667 Y105.802 E3.85649
G1 X84.869 Y105.229 E3.86255
G1 X84.933 Y105.063 E3.86433
G1 X85.296 Y104.231 E3.87339
G1 X85.731 Y103.435 E3.88244
G1 X86.235 Y102.68 E3.89149
G1 X86.954 Y101.804 E3.9028
G1 X87.731 Y100.961 E3.91424
G1 X93.481 Y94.942 E3.9973
G1 X94.26 Y94.145 E4.00842
G1 X100.132 Y88.26 E4.09137
G1 X100.635 Y87.768 E4.09839
G1 X101.311 Y87.162 E4.10745
G1 X102.038 Y86.619 E4.11651
G1 X102.809 Y86.141 E4.12556
G1 X103.752 Y85.676 E4.13605
G1 X103.877 Y85.622 E4.13741
G1 X104.725 Y85.299 E4.14646
G1 X105.599 Y85.052 E4.15552
G1 X106.49 Y84.883 E4.16457
G1 X107.627 Y84.782 E4.17596
G1 X108.442 Y84.767 E4.1841
G1 X126.707 Y84.768 E4.36635
G1 X127.405 Y84.778 E4.37331
G0 F6000 X127.407 Y84.578
G1 F1200 X128.322 Y84.631 E4.38246
G1 X129.229 Y84.764 E4.3916
G1 X130.12 Y84.975 E4.40074
G1 X131.052 Y85.287 E4.41055
G1 X131.181 Y85.337 E4.41193
G1 X132.02 Y85.705 E4.42107
G1 X132.824 Y86.145 E4.43021
G1 X133.586 Y86.653 E4.43935
G1 X134.301 Y87.226 E4.44849
G1 X134.701 Y87.594 E4.45392
G1 X135.328 Y88.204 E4.46265
G1 X147.645 Y100.523 E4.63647
G1 X148.115 Y101.006 E4.64319
G1 X148.725 Y101.69 E4.65233
G1 X149.273 Y102.425 E4.66148
G1 X149.754 Y103.204 E4.67062
G1 X150.166 Y104.023 E4.67977
G1 X150.436 Y104.679 E4.68684
G1 X150.73 Y105.547 E4.69599
G1 X150.946 Y106.437 E4.70513
G1 X151.069 Y107.208 E4.71292
G1 X151.169 Y108.043 E4.72131
G1 X151.296 Y109.245 E4.73337
G1 X151.636 Y111.763 E4.75872
G1 X151.969 Y113.833 E4.77964
G1 X152.19 Y115.112 E4.79259
G1 X152.306 Y116.021 E4.80174
G1 X152.338 Y116.582 E4.80734
G1 X152.353 Y117.23 E4.81381
G1 X152.352 Y127.404 E4.91533
G1 X152.342 Y128.132 E4.92259
G1 X152.289 Y129.047 E4.93174
G1 X152.157 Y129.954 E4.94088
G1 X151.947 Y130.845 E4.95002
G1 X151.566 Y131.952 E4.9617
G1 X151.345 Y132.494 E4.96754
G1 X150.962 Y133.327 E4.97669
G1 X150.508 Y134.123 E4.98583
G1 X149.987 Y134.877 E4.99497
G1 X149.174 Y135.825 E5.00744
G1 X148.599 Y136.418 E5.01568
G1 X138.31 Y146.721 E5.16097
G1 X137.81 Y147.208 E5.16793
G1 X137.127 Y147.818 E5.17707
G1 X136.392 Y148.366 E5.18622
G1 X135.613 Y148.848 E5.19536
G1 X134.723 Y149.292 E5.20528
G1 X134.476 Y149.401 E5.20797
G1 X134.137 Y149.544 E5.21164
G1 X133.822 Y149.67 E5.21503
G1 X132.957 Y149.973 E5.22418
G1 X132.069 Y150.199 E5.23332
G1 X131.165 Y150.347 E5.24246
G1 X130.12 Y150.419 E5.25291
G1 X129.286 Y150.433 E5.26123
G1 X105.74 Y150.432 E5.49618
G1 X105.042 Y150.422 E5.50314
G1 X104.127 Y150.369 E5.51229
G1 X103.22 Y150.236 E5.52143
G1 X102.329 Y150.025 E5.53057
G1 X101.566 Y149.777 E5.53858
G1 X101.354 Y149.699 E5.54083
G1 X100.804 Y149.479 E5.54674
G1 X100.451 Y149.326 E5.55058
G1 X99.627 Y148.925 E5.55972
G1 X98.841 Y148.454 E5.56887
G1 X98.099 Y147.916 E5.57801
G1 X97.341 Y147.253 E5.58806
G1 X96.707 Y146.639 E5.59687
G1 X86.35 Y136.276 E5.74306
G1 X85.866 Y135.778 E5.74999
G1 X85.257 Y135.094 E5.75912
G1 X84.71 Y134.359 E5.76827
G1 X84.228 Y133.579 E5.77741
G1 X83.744 Y132.593 E5.78837
G1 X83.565 Y132.175 E5.79291
G1 X83.318 Y131.548 E5.79964
G1 X83.036 Y130.676 E5.80878
G1 X82.831 Y129.783 E5.81792
G1 X82.704 Y128.875 E5.82707
G1 X82.658 Y128.027 E5.83554
G1 X82.65 Y127.306 E5.84274
G1 X82.718 Y117.348 E5.9421
G1 X82.732 Y116.688 E5.94869
G1 X82.792 Y115.774 E5.95783
G1 X82.918 Y114.93 E5.96634
G1 X83.015 Y114.425 E5.97147
G1 X83.46 Y111.924 E5.99682
G1 X83.832 Y109.428 E6.022
G1 X83.961 Y108.369 E6.03265
G1 X84.071 Y107.545 E6.04094
G1 X84.232 Y106.643 E6.05008
G1 X84.471 Y105.758 E6.05923
G1 X84.682 Y105.157 E6.06559
G1 X84.746 Y104.991 E6.06736
G1 X85.113 Y104.151 E6.07651
G1 X85.551 Y103.346 E6.08565
G1 X86.058 Y102.583 E6.09479
G1 X86.807 Y101.669 E6.10658
G1 X87.586 Y100.823 E6.11806
G1 X93.338 Y94.803 E6.20114
G1 X94.119 Y94.004 E6.21229
G1 X99.992 Y88.117 E6.29526
G1 X100.495 Y87.625 E6.30228
G1 X101.177 Y87.013 E6.31142
G1 X101.91 Y86.464 E6.32056
G1 X102.689 Y85.98 E6.32971
G1 X103.673 Y85.492 E6.34067
G1 X103.798 Y85.438 E6.34203
G1 X104.654 Y85.112 E6.35117
G1 X105.536 Y84.861 E6.36032
G1 X106.435 Y84.689 E6.36945
G1 X107.62 Y84.583 E6.38133
G1 X108.442 Y84.567 E6.38953
G1 X126.709 Y84.568 E6.5718
G1 X127.407 Y84.578 E6.57876
G1 F2700 E1.57876
;MESH:out2.stl
G0 F6000 X126.39 Y131.835
G0 X117.133 Y129.055
G0 X117.037 Y131.692
;TYPE:WALL-INNER
G1 F2700 E6.57876
G1 F1200 X117.037 Y129.151 E6.60412
G1 X115.184 Y129.151 E6.62261
G1 X115.184 Y131.692 E6.64796
G1 X117.037 Y131.692 E6.66645
G0 F6000 X116.837 Y131.492
G1 F1200 X116.837 Y129.351 E6.68781
G1 X115.384 Y129.351 E6.70231
G1 X115.384 Y131.492 E6.72367
G1 X116.837 Y131.492 E6.73817
G0 F6000 X116.637 Y131.292
;TYPE:WALL-OUTER
G1 F1200 X116.637 Y129.551 E6.75554
G1 X115.584 Y129.551 E6.76605
G1 X115.584 Y131.292 E6.78342
G1 X116.637 Y131.292 E6.79393
G1 F2700 E1.79393
G0 F6000 X116.787 Y131.292
G0 X116.748 Y131.336
G0 X115.094 Y131.692
G0 X114.549 Y131.692
G0 X114.459 Y131.692
;TYPE:WALL-INNER
G1 F2700 E6.79393
G1 F1200 X114.459 Y129.151 E6.81928
G1 X112.603 Y129.151 E6.8378
G1 X112.603 Y131.692 E6.86316
G1 X114.459 Y131.692 E6.88168
G0 F6000 X114.259 Y131.492
G1 F1200 X114.259 Y129.351 E6.90304
G1 X112.803 Y129.351 E6.91757
G1 X112.803 Y131.492 E6.93893
G1 X114.259 Y131.492 E6.95346
G0 F6000 X114.059 Y131.292
;TYPE:WALL-OUTER
G1 F1200 X114.059 Y129.551 E6.97083
G1 X113.003 Y129.551 E6.98137
G1 X113.003 Y131.292 E6.99874
G1 X114.059 Y131.292 E7.00928
G1 F2700 E2.00928
G0 F6000 X114.209 Y131.292
G0 X114.137 Y129.473
G0 X112.507 Y129.055
G0 X107.889 Y124.437
G0 X103.629 Y128.541
;TYPE:WALL-INNER
G1 F2700 E7.00928
G1 F1200 X108.537 Y123.633 E7.07853
G1 X103.207 Y118.303 E7.15375
G1 X98.299 Y123.211 E7.223
G1 X98.229 Y123.28 E7.22398
G1 X98.299 Y123.35 E7.22462
G1 X103.49 Y128.541 E7.29787
G1 X103.56 Y128.611 E7.29886
G1 X103.629 Y128.541 E7.29949
G0 F6000 X103.56 Y128.328
G1 F1200 X103.629 Y128.258 E7.30047
G1 X108.254 Y123.633 E7.36573
G1 X103.207 Y118.586 E7.43695
G1 X98.582 Y123.211 E7.50221
G1 X98.512 Y123.28 E7.50319
G1 X98.582 Y123.35 E7.50383
G1 X103.49 Y128.258 E7.57309
G1 X103.56 Y128.328 E7.57372
G0 F6000 X103.56 Y128.045
;TYPE:WALL-OUTER
G1 F1200 X107.971 Y123.633 E7.63597
G1 X103.207 Y118.869 E7.7032
G1 X98.795 Y123.28 E7.76545
G1 X103.56 Y128.045 E7.83269
G1 F2700 E2.83269
G0 F6000 X103.454 Y128.15
G0 X103.56 Y128.747
G0 X103.346 Y128.961
G0 X103.163 Y129.376
G0 X103.955 Y130.179
G0 X101.68 Y132.77
;TYPE:WALL-INNER
G1 F2700 E7.83269
G1 F1200 X101.749 Y132.84 E7.83367
G1 X101.819 Y132.77 E7.8343
G1 X104.34 Y130.249 E7.86988
G1 X104.41 Y130.179 E7.87087
G1 X104.34 Y130.11 E7.8715
G1 X102.054 Y127.826 E7.90374
G1 X99.395 Y130.483 E7.94125
G1 X101.68 Y132.77 E7.97351
G0 F6000 X101.749 Y132.557
G1 F1200 X101.819 Y132.487 E7.97449
G1 X104.057 Y130.249 E8.00607
G1 X104.127 Y130.179 E8.00706
G1 X104.057 Y130.11 E8.00769
G1 X102.054 Y128.109 E8.03594
G1 X99.678 Y130.483 E8.06946
G1 X101.68 Y132.487 E8.09772
G1 X101.749 Y132.557 E8.09835
G0 F6000 X101.749 Y132.274
;TYPE:WALL-OUTER
G1 F1200 X103.844 Y130.179 E8.12791
G1 X102.054 Y128.392 E8.15315
G1 X99.961 Y130.483 E8.18267
G1 X101.749 Y132.274 E8.20792
G1 F2700 E3.20792
G0 F6000 X101.643 Y132.379
G0 X99.33 Y130.421
G0 X98.95 Y130.039
G0 X98.887 Y129.975
;TYPE:WALL-INNER
G1 F2700 E8.20792
G1 F1200 X101.544 Y127.316 E8.24543
G1 X99.26 Y125.031 E8.27767
G1 X99.191 Y124.961 E8.27865
G1 X99.121 Y125.03 E8.27928
G1 X96.599 Y127.551 E8.31486
G1 X96.529 Y127.621 E8.31585
G1 X96.599 Y127.69 E8.31648
G1 X98.887 Y129.975 E8.34875
G0 F6000 X98.887 Y129.692
G1 F1200 X101.261 Y127.316 E8.38226
G1 X99.26 Y125.314 E8.4105
G1 X99.191 Y125.244 E8.41148
G1 X99.121 Y125.313 E8.41212
G1 X96.882 Y127.551 E8.4437
G1 X96.812 Y127.621 E8.44469
G1 X96.882 Y127.69 E8.44532
G1 X98.887 Y129.692 E8.47359
G0 F6000 X98.887 Y129.409
;TYPE:WALL-OUTER
G1 F1200 X100.978 Y127.316 E8.50311
G1 X99.191 Y125.527 E8.52835
G1 X97.095 Y127.621 E8.55791
G1 X98.887 Y129.409 E8.58317
G1 F2700 E3.58317
G0 F6000 X98.78 Y129.513
G0 X97.828 Y129.017
G0 X98.7 Y128.143
G0 X96.967 Y120.491
G0 X96.094 Y121.365
G0 X97.152 Y122.324
;TYPE:WALL-INNER
G1 F2700 E8.58317
G1 F1200 X98.95 Y120.527 E8.60853
G1 X99.02 Y120.458 E8.60951
G1 X98.95 Y120.388 E8.61015
G1 X96.161 Y117.6 E8.6495
G1 X94.295 Y119.465 E8.67582
G1 X97.152 Y122.324 E8.71615
G0 F6000 X97.152 Y122.041
G1 F1200 X98.667 Y120.527 E8.73752
G1 X98.737 Y120.458 E8.7385
G1 X98.667 Y120.389 E8.73913
G1 X96.161 Y117.883 E8.77449
G1 X94.578 Y119.465 E8.79683
G1 X97.152 Y122.041 E8.83316
G0 F6000 X97.152 Y121.758
;TYPE:WALL-OUTER
G1 F1200 X98.454 Y120.458 E8.85152
G1 X96.161 Y118.166 E8.88387
G1 X94.861 Y119.465 E8.90221
G1 X97.152 Y121.758 E8.93455
G1 F2700 E3.93455
G0 F6000 X97.046 Y121.863
G0 X97.105 Y121.865
G0 X99.077 Y120.388
G0 X100.3 Y119.164
G0 X100.449 Y119.018
;TYPE:WALL-INNER
G1 F2700 E8.93455
G1 F1200 X102.245 Y117.22 E8.95991
G1 X99.39 Y114.364 E9.0002
G1 X97.59 Y116.162 E9.02559
G1 X97.52 Y116.231 E9.02657
G1 X97.59 Y116.3 E9.0272
G1 X100.31 Y119.019 E9.06557
G1 X100.38 Y119.088 E9.06655
G1 X100.449 Y119.018 E9.06719
G0 F6000 X100.38 Y118.805
G1 F1200 X100.449 Y118.735 E9.06817
G1 X101.962 Y117.22 E9.08953
